logos/tv.tvn.svg

<?xml version="1.0" encoding="UTF-8" standalone="no"?>
<!-- Created with Inkscape (http://www.inkscape.org/) -->

<svg
   xmlns:dc="http://purl.org/dc/elements/1.1/"
   xmlns:cc="http://creativecommons.org/ns#"
   xmlns:rdf="http://www.w3.org/1999/02/22-rdf-syntax-ns#"
   xmlns:svg="http://www.w3.org/2000/svg"
   xmlns="http://www.w3.org/2000/svg"
   xmlns:inkscape="http://www.inkscape.org/namespaces/inkscape"
   version="1.0"
   width="1340"
   height="1340"
   id="svg2">
  <defs
     id="defs4" />
  <metadata
     id="metadata7">
    <rdf:RDF>
      <cc:Work
         rdf:about="">
        <dc:format>image/svg+xml</dc:format>
        <dc:type
           rdf:resource="http://purl.org/dc/dcmitype/StillImage" />
      </cc:Work>
    </rdf:RDF>
  </metadata>
  <g
     transform="translate(342.857,-15.2194)"
     id="layer1">
    <path
       d="m 965.71426,669.50507 a 654.28571,654.28571 0 1 1 -1308.57141,0 654.28571,654.28571 0 1 1 1308.57141,0 z"
       transform="translate(15.7143,15.7143)"
       id="path1872"
       style="fill:#1f60a9;fill-opacity:1;fill-rule:nonzero;stroke:none" />
    <path
       d="m 115.17921,559.54645 0,77.99673 -61.132477,0 0,112.92917 c -1.53e-4,15.45873 2.910885,24.64412 8.73322,27.55465 5.821924,2.91155 11.844853,4.36708 18.068689,4.36708 9.636443,0 21.079948,-1.70685 34.330568,-5.11951 l 0,85.52512 c -23.690269,4.61738 -46.978836,6.92605 -69.865695,6.92605 -36.940587,0 -64.093835,-7.9298 -81.459794,-23.79044 -17.366114,-15.86011 -26.04912,-41.15645 -26.049069,-75.88847 l 0.301126,-35.836 0,-96.66765 -45.774088,0 0,-77.99673 45.774088,0 1.80691,-99.67942 114.134045,-1.80656 0,101.48598 61.132477,0 z m 332.52653,0 -112.32713,306.26451 -89.7413,0 -114.43522,-306.26451 123.46957,0 43.66603,130.09475 c 3.61362,10.6404 6.82584,21.18058 9.63666,31.62003 1.00364,-3.61362 2.50938,-8.23098 4.5172,-13.85262 0.40134,-0.80279 1.70632,-4.61736 3.9149,-11.44371 l 45.17176,-136.41845 86.12753,0 z m 314.24836,306.26451 -120.15694,0 0,-192.73298 c -2.1e-4,-15.86011 -2.45958,-25.99837 -7.37807,-30.41532 -4.91891,-4.41692 -11.09238,-6.62538 -18.52045,-6.62538 -21.88336,0 -32.82494,15.25829 -32.82485,45.77383 l 0,183.99985 -120.15692,0 0,-306.26451 111.42376,0 0,43.36492 c 16.46243,-33.12592 45.87425,-49.68861 88.23552,-49.68913 22.28453,5.2e-4 41.10607,4.26633 56.46474,12.7985 15.35812,8.53318 26.3499,19.57499 32.97541,33.12644 6.62487,13.55143 9.93747,37.09106 9.9378,70.61837 l 0,196.04541 z"
       inkscape:connector-curvature="0"
       id="flowRoot1874"
       style="fill:#fcb130;fill-opacity:1;font-family:Franklin Gothic Heavy" />
  </g>
</svg>

<?xml version="1.0" encoding="UTF-8" standalone="no"?>
<!-- Created with Inkscape (http://www.inkscape.org/) -->
<svg xmlns:dc="http://purl.org/dc/elements/1.1/" xmlns:cc="http://web.resource.org/cc/" xmlns:rdf="http://www.w3.org/1999/02/22-rdf-syntax-ns#" xmlns:svg="http://www.w3.org/2000/svg" xmlns="http://www.w3.org/2000/svg" xmlns:sodipodi="http://sodipodi.sourceforge.net/DTD/sodipodi-0.dtd" xmlns:inkscape="http://www.inkscape.org/namespaces/inkscape" height="1340" width="1340" id="svg2" sodipodi:version="0.32" inkscape:version="0.44" version="1.0" sodipodi:docbase="C:\Documents and Settings\Damian\Pulpit" sodipodi:docname="TVN.svg">
  <defs id="defs4"/>
  <sodipodi:namedview id="base" pagecolor="#ffffff" bordercolor="#666666" borderopacity="1.0" inkscape:pageopacity="0.0" inkscape:pageshadow="2" inkscape:cx="341.34262" inkscape:cy="738.77981" inkscape:zoom="0.28134328" inkscape:document-units="px" inkscape:current-layer="layer1" width="1340px" height="1340px" inkscape:window-width="888" inkscape:window-height="574" inkscape:window-x="44" inkscape:window-y="58"/>
  <metadata id="metadata7">
    <rdf:RDF>
      <cc:Work rdf:about="">
        <dc:format>image/svg+xml</dc:format>
        <dc:type rdf:resource="http://purl.org/dc/dcmitype/StillImage"/>
      </cc:Work>
    </rdf:RDF>
  </metadata>
  <g inkscape:groupmode="layer" inkscape:label="Warstwa 1" id="layer1" transform="translate(342.857, -15.2194)">
    <path sodipodi:type="arc" style="opacity: 1; fill: rgb(31, 96, 169); fill-opacity: 1; fill-rule: nonzero; stroke: none; stroke-width: 10; stroke-linecap: butt; stroke-linejoin: miter; stroke-miterlimit: 4; stroke-dasharray: none; stroke-dashoffset: 0pt; stroke-opacity: 1;" id="path1872" sodipodi:cx="311.42856" sodipodi:cy="669.50507" sodipodi:rx="654.28571" sodipodi:ry="654.28571" d="M 965.71426 669.50507 A 654.28571 654.28571 0 1 1  -342.85715,669.50507 A 654.28571 654.28571 0 1 1  965.71426 669.50507 z" transform="translate(15.7143, 15.7143)"/>
    <path style="fill: rgb(252, 177, 48); fill-opacity: 1; font-family: Franklin Gothic Heavy;" d="M 115.17921,559.54645 L 115.17921,637.54318 L 54.046733,637.54318 L 54.046733,750.47235 C 54.04658,765.93108 56.957618,775.11647 62.779953,778.027 C 68.601877,780.93855 74.624806,782.39408 80.848642,782.39408 C 90.485085,782.39408 101.92859,780.68723 115.17921,777.27457 L 115.17921,862.79969 C 91.488941,867.41707 68.200374,869.72574 45.313515,869.72574 C 8.372928,869.72574 -18.78032,861.79594 -36.146279,845.9353 C -53.512393,830.07519 -62.195399,804.77885 -62.195348,770.04683 L -61.894222,734.21083 L -61.894222,637.54318 L -107.66831,637.54318 L -107.66831,559.54645 L -61.894222,559.54645 L -60.087312,459.86703 L 54.046733,458.06047 L 54.046733,559.54645 L 115.17921,559.54645 z M 447.70574,559.54645 L 335.37861,865.81096 L 245.63731,865.81096 L 131.20209,559.54645 L 254.67166,559.54645 L 298.33769,689.6412 C 301.95131,700.2816 305.16353,710.82178 307.97435,721.26123 C 308.97799,717.64761 310.48373,713.03025 312.49155,707.40861 C 312.89289,706.60582 314.19787,702.79125 316.40645,695.9649 L 361.57821,559.54645 L 447.70574,559.54645 z M 761.9541,865.81096 L 641.79716,865.81096 L 641.79716,673.07798 C 641.79695,657.21787 639.33758,647.07961 634.41909,642.66266 C 629.50018,638.24574 623.32671,636.03728 615.89864,636.03728 C 594.01528,636.03728 583.0737,651.29557 583.07379,681.81111 L 583.07379,865.81096 L 462.91687,865.81096 L 462.91687,559.54645 L 574.34063,559.54645 L 574.34063,602.91137 C 590.80306,569.78545 620.21488,553.22276 662.57615,553.22224 C 684.86068,553.22276 703.68222,557.48857 719.04089,566.02074 C 734.39901,574.55392 745.39079,585.59573 752.0163,599.14718 C 758.64117,612.69861 761.95377,636.23824 761.9541,669.76555 L 761.9541,865.81096 z " id="flowRoot1874" sodipodi:nodetypes="ccccssccscccccccccccccccccccccccccssccccccccscc"/>
  </g>
</svg>
